svg/vees.svg

<?xml version="1.0" encoding="UTF-8" standalone="no"?>
<!-- Created with Inkscape (http://www.inkscape.org/) -->

<svg
   width="32"
   height="32"
   viewBox="0 0 8.4666666 8.4666668"
   version="1.1"
   id="svg5"
   inkscape:version="1.2 (dc2aeda, 2022-05-15)"
   sodipodi:docname="vees.svg"
   xmlns:inkscape="http://www.inkscape.org/namespaces/inkscape"
   xmlns:sodipodi="http://sodipodi.sourceforge.net/DTD/sodipodi-0.dtd"
   xmlns="http://www.w3.org/2000/svg"
   xmlns:svg="http://www.w3.org/2000/svg"
   xmlns:rdf="http://www.w3.org/1999/02/22-rdf-syntax-ns#"
   xmlns:cc="http://creativecommons.org/ns#">
  <sodipodi:namedview
     id="namedview7"
     pagecolor="#ffffff"
     bordercolor="#111111"
     borderopacity="1"
     inkscape:pageshadow="0"
     inkscape:pageopacity="0"
     inkscape:pagecheckerboard="1"
     inkscape:document-units="mm"
     showgrid="true"
     width="32mm"
     units="px"
     objecttolerance="10000"
     guidetolerance="10000"
     inkscape:snap-perpendicular="true"
     inkscape:snap-tangential="true"
     inkscape:zoom="34.90625"
     inkscape:cx="8.6660698"
     inkscape:cy="9.2390331"
     inkscape:window-width="2560"
     inkscape:window-height="1301"
     inkscape:window-x="0"
     inkscape:window-y="25"
     inkscape:window-maximized="0"
     inkscape:current-layer="g4981"
     inkscape:showpageshadow="0"
     inkscape:deskcolor="#d1d1d1">
    <inkscape:grid
       type="xygrid"
       id="grid9"
       units="px"
       empspacing="2" />
  </sodipodi:namedview>
  <defs
     id="defs2" />
  <g
     inkscape:label="Layer 1"
     inkscape:groupmode="layer"
     id="layer1">
    <g
       id="g4969">
      <path
         style="fill:#000000;stroke:none;stroke-width:0.264583px;stroke-linecap:butt;stroke-linejoin:miter;stroke-opacity:1;fill-opacity:1"
         d="M 1.0583333,1.0583333 H 1.5875 l 0.79375,0.79375 0.79375,-0.79375 H 3.7041666 L 2.38125,2.38125 Z"
         id="path4760" />
      <path
         style="fill:#000000;fill-opacity:1;stroke:none;stroke-width:0.264583px;stroke-linecap:butt;stroke-linejoin:miter;stroke-opacity:1"
         d="m 4.7625002,2.1166667 h 0.5291667 l 0.79375,0.79375 0.79375,-0.79375 H 7.4083335 L 6.0854169,3.4395834 Z"
         id="path4965" />
    </g>
    <g
       id="g4975"
       transform="translate(0,2.1166667)">
      <path
         style="fill:#000000;fill-opacity:1;stroke:none;stroke-width:0.264583px;stroke-linecap:butt;stroke-linejoin:miter;stroke-opacity:1"
         d="M 1.0583333,1.0583333 H 1.5875 l 0.79375,0.79375 0.79375,-0.79375 H 3.7041666 L 2.38125,2.38125 Z"
         id="path4971" />
      <path
         style="fill:#000000;fill-opacity:1;stroke:none;stroke-width:0.264583px;stroke-linecap:butt;stroke-linejoin:miter;stroke-opacity:1"
         d="m 4.7625002,2.1166667 h 0.5291667 l 0.79375,0.79375 0.79375,-0.79375 H 7.4083335 L 6.0854169,3.4395834 Z"
         id="path4973" />
    </g>
    <g
       id="g4981"
       transform="translate(0,4.2333335)">
      <path
         style="fill:#000000;fill-opacity:1;stroke:none;stroke-width:0.264583px;stroke-linecap:butt;stroke-linejoin:miter;stroke-opacity:1"
         d="M 1.0583333,1.0583333 H 1.5875 l 0.79375,0.79375 0.79375,-0.79375 H 3.7041666 L 2.38125,2.38125 Z"
         id="path4977" />
      <path
         style="fill:#000000;fill-opacity:1;stroke:none;stroke-width:0.264583px;stroke-linecap:butt;stroke-linejoin:miter;stroke-opacity:1"
         d="m 4.7625002,2.1166667 h 0.5291667 l 0.79375,0.79375 0.79375,-0.79375 H 7.4083335 L 6.0854169,3.4395834 Z"
         id="path4979" />
      <path
         style="fill:#000000;fill-opacity:1;stroke:none;stroke-width:0.264583px;stroke-linecap:butt;stroke-linejoin:miter;stroke-opacity:1"
         d="M 1.7333333e-7,4.233333 0.79375027,3.439583 H 1.3229169 L 0.52916667,4.2333332 Z"
         id="path862"
         sodipodi:nodetypes="ccccc" />
      <path
         style="fill:#000000;fill-opacity:1;stroke:none;stroke-width:0.264583px;stroke-linecap:butt;stroke-linejoin:miter;stroke-opacity:1"
         d="M 8.466666,4.233333 7.672916,3.439583 H 7.1437494 l 0.7937501,0.7937502 z"
         id="path960"
         sodipodi:nodetypes="ccccc" />
      <path
         style="fill:#000000;stroke:none;stroke-width:0.264583px;stroke-linecap:butt;stroke-linejoin:miter;stroke-opacity:1"
         d="M 0,-3.7041669 0.52916666,-4.2333335 H 0 Z"
         id="path1025" />
      <path
         style="fill:#000000;stroke:none;stroke-width:0.264583px;stroke-linecap:butt;stroke-linejoin:miter;stroke-opacity:1"
         d="M 8.4666657,-3.7041669 7.9374991,-4.2333335 h 0.5291666 z"
         id="path1027" />
    </g>
  </g>
  <metadata
     id="metadata33">
    <rdf:RDF>
      <cc:Work
         rdf:about="">
        <cc:license
           rdf:resource="http://creativecommons.org/licenses/by-sa/4.0/" />
      </cc:Work>
      <cc:License
         rdf:about="http://creativecommons.org/licenses/by-sa/4.0/">
        <cc:permits
           rdf:resource="http://creativecommons.org/ns#Reproduction" />
        <cc:permits
           rdf:resource="http://creativecommons.org/ns#Distribution" />
        <cc:requires
           rdf:resource="http://creativecommons.org/ns#Notice" />
        <cc:requires
           rdf:resource="http://creativecommons.org/ns#Attribution" />
        <cc:permits
           rdf:resource="http://creativecommons.org/ns#DerivativeWorks" />
        <cc:requires
           rdf:resource="http://creativecommons.org/ns#ShareAlike" />
      </cc:License>
    </rdf:RDF>
  </metadata>
</svg>

<svg width="32" height="32" viewBox="0 0 8.467 8.467" xmlns="http://www.w3.org/2000/svg"><path style="fill:#000;stroke:none;stroke-width:.264583px;stroke-linecap:butt;stroke-linejoin:miter;stroke-opacity:1;fill-opacity:1" d="M1.058 1.058h.53l.793.794.794-.794h.53L2.38 2.381Z"/><path style="fill:#000;fill-opacity:1;stroke:none;stroke-width:.264583px;stroke-linecap:butt;stroke-linejoin:miter;stroke-opacity:1" d="M4.763 2.117h.529l.793.793.794-.793h.53L6.084 3.44Z"/><path style="fill:#000;fill-opacity:1;stroke:none;stroke-width:.264583px;stroke-linecap:butt;stroke-linejoin:miter;stroke-opacity:1" d="M1.058 1.058h.53l.793.794.794-.794h.53L2.38 2.381ZM4.763 2.117h.529l.793.793.794-.793h.53L6.084 3.44Z" transform="translate(0 2.117)"/><path style="fill:#000;fill-opacity:1;stroke:none;stroke-width:.264583px;stroke-linecap:butt;stroke-linejoin:miter;stroke-opacity:1" d="M1.058 1.058h.53l.793.794.794-.794h.53L2.38 2.381ZM4.763 2.117h.529l.793.793.794-.793h.53L6.084 3.44ZM0 4.233l.794-.793h.529l-.794.793ZM8.467 4.233l-.794-.793h-.53l.794.793z" transform="translate(0 4.233)"/><path style="fill:#000;stroke:none;stroke-width:.264583px;stroke-linecap:butt;stroke-linejoin:miter;stroke-opacity:1" d="m0-3.704.53-.53H0ZM8.467-3.704l-.53-.53h.53z" transform="translate(0 4.233)"/></svg>
